X:11
T:F\'ainne Geal an Lae
T:Bright Dawn of the Day, The
R:air
Z:id:hn-air-11
M:C|
L:1/8
Q:1/2=70
K:G
GA | B2B2 B2AB | d3e fedB | A2AB G3A | B6 GA |
B2B2 B2AB | d3e fedB | A2AB A3G | G6 ||
BA | Bdef g2fg | eged BABd | e2e2 f2d2 | e3f gfed |
B2B2 B2AB | d3e fedB | AGAB A3G | G6 ||
P:variations
GA | B2B2 B2AB | d3e fedB | AGAB G2A2 | B6 GA |
B2B2 B2AB | d3e fedB | AGAB G2GA | G6 ||
BA | Bdef g2fg | efed B2Bd | e2e2 f2df | e3f gfed |
B2B2 B2AB | d3e fedB | AGAB G2GA | G6 ||

